vsi/lightbulb-autofix_dark.svg

<svg viewBox="0 0 16 16" fill="none" xmlns="http://www.w3.org/2000/svg" height="1em" width="1em">
  <path d="M12 9C11.4067 9 10.8266 9.17597 10.3333 9.50562C9.83992 9.83526 9.45547 10.3038 9.22841 10.8519C9.00134 11.4001 8.94187 12.0034 9.05763 12.5853C9.17339 13.1673 9.45912 13.7018 9.87868 14.1213C10.2982 14.5409 10.8327 14.8266 11.4147 14.9424C11.9966 15.0581 12.5999 14.9987 13.1481 14.7716C13.6963 14.5445 14.1648 14.1601 14.4944 13.6667C14.824 13.1734 15 12.5933 15 12C15 11.2044 14.684 10.4413 14.1214 9.87866C13.5587 9.31605 12.7957 9 12 9ZM13.3101 14L12 13L10.7 14L11.2 12.47L10 11.64H11.47L12 10L12.5401 11.64H14L12.8001 12.47L13.3101 14Z" fill="#75BEFF"/>
  <path fill-rule="evenodd" clip-rule="evenodd" d="M11.1708 8.08474C9.85081 8.35911 8.77687 9.27684 8.28696 10.5H6.40867V12.7012C6.40867 12.7823 6.4372 12.8512 6.49888 12.9127C6.56058 12.9741 6.63007 13.0028 6.71205 13.0028H8.12487C8.21364 13.3513 8.34773 13.6809 8.52059 13.9851C8.45462 13.9951 8.38715 14 8.31823 14H6.71205C6.53223 14 6.36223 13.9663 6.20306 13.8984C6.04564 13.8311 5.90753 13.7388 5.78961 13.6213C5.67168 13.5038 5.57895 13.3661 5.51141 13.2091C5.44311 13.0503 5.40927 12.8807 5.40927 12.7012V11.1009C5.40927 10.622 5.31772 10.1795 5.13553 9.77209C4.95683 9.36336 4.69832 8.99156 4.35953 8.65806C3.92468 8.22903 3.58896 7.75003 3.35361 7.22134C3.11756 6.69107 3 6.11672 3 5.49953C3 5.08664 3.05342 4.68802 3.16048 4.30397C3.26728 3.92089 3.41907 3.56286 3.61595 3.23018C3.81257 2.89377 4.04777 2.58911 4.32146 2.31641C4.59503 2.04383 4.89858 1.80953 5.23195 1.61364C5.56979 1.41764 5.93146 1.2662 6.31578 1.15983C6.70106 1.0532 7.10094 1 7.51514 1C7.92934 1 8.32923 1.0532 8.71451 1.15983C9.09883 1.2662 9.45803 1.41739 9.79183 1.61351C10.1294 1.80938 10.4351 2.0437 10.7088 2.31641C10.9825 2.5891 11.2177 2.89376 11.4143 3.23016C11.6112 3.56285 11.763 3.92088 11.8698 4.30397C11.9769 4.68802 12.0303 5.08664 12.0303 5.49953C12.0303 6.11672 11.9127 6.69107 11.6767 7.22134C11.5412 7.52562 11.3725 7.81344 11.1708 8.08474Z" fill="#75BEFF"/>
</svg>

<svg viewBox="0 0 16 16" fill="none" xmlns="http://www.w3.org/2000/svg" height="1em" width="1em">
  <path d="M12 9a3 3 0 1 0 0 6 3 3 0 0 0 0-6Zm1.31 5L12 13l-1.3 1 .5-1.53-1.2-.83h1.47L12 10l.54 1.64H14l-1.2.83.51 1.53Z" fill="#75BEFF"/>
  <path fill-rule="evenodd" clip-rule="evenodd" d="M11.17 8.085A3.979 3.979 0 0 0 8.288 10.5H6.409v2.201c0 .081.028.15.09.212a.29.29 0 0 0 .213.09h1.413c.089.348.223.678.396.982-.066.01-.134.015-.203.015H6.712a1.285 1.285 0 0 1-.922-.379 1.303 1.303 0 0 1-.38-.92v-1.6c0-.479-.092-.921-.274-1.329a3.556 3.556 0 0 0-.776-1.114 4.689 4.689 0 0 1-1.006-1.437A4.187 4.187 0 0 1 3 5.5a4.432 4.432 0 0 1 .616-2.27c.197-.336.432-.64.705-.914a4.6 4.6 0 0 1 .911-.702c.338-.196.7-.348 1.084-.454a4.45 4.45 0 0 1 1.2-.16 4.476 4.476 0 0 1 2.276.614 4.475 4.475 0 0 1 1.622 1.616 4.438 4.438 0 0 1 .616 2.27c0 .617-.117 1.191-.353 1.721a4.537 4.537 0 0 1-.506.864Z" fill="#75BEFF"/>
</svg>
